X:1
T:Title
%%score { 1 | ( 2 3 ) }
L:1/8
Q:1/4=100
M:2/2
K:G
V:1 treble nm="Grand Piano"
V:2 bass 
V:3 bass 
V:1
 E4 F2 F2 | [DG]2 F2 E2 D2 | E8 | G2 [DFA]2 [DGB]2 [DGB]2 | [EGc]2 [DGB]2 [CEc]2 [DFA]2 | [DGB]8 | %6
w: Michael~Weisse * *||||||
 [DGB]4 [Ge]2 [Ge]2 | [Ad]2 [GB]2 [Fd]2 B2 | A8 | G2 A2 B2 E2 | G2 G2 [CEA]2 [B,^DF]2 | %11
w: |||||
[M:8/4] [G,B,E]8 z8 |[M:4/4] [A,CE]8 | [G,B,E]8 |] %14
w: |||
V:2
 [E,G,B,]4 [D,A,D]2 [D,A,D]2 | [B,,B,]2 [D,A,D]2 [E,G,B,]2 [B,,F,B,]2 | [E,G,B,]8 | %3
 [E,B,E]2 D,2 G,2 G,2 | C,2 G,2 A,2 D,2 | G,8 | G,4 [C,C]2 [E,B,]2 | %7
 [F,D]2 [G,D]2 [D,D]2[K:treble] [G,DG]2 | [A,CE]8 | E4 z4 | [E,B,E]2 [E,B,E]2 A,,2 B,,2 | %11
[M:8/4] E,8 z8 |[M:4/4] A,,8 | E,8 |] %14
V:3
 x8 | x8 | x8 | x8 | x8 | x8 | x8 | x6[K:treble] x2 | x8 | [E,B,]2 [A,C]2 [G,B,E]2 [A,C]2 | x8 | %11
[M:8/4] x16 |[M:4/4] x8 | x8 |] %14

